paymentMethods/visa.svg

<svg width="128" height="64" viewBox="0 0 128 64" fill="none" xmlns="http://www.w3.org/2000/svg">
<rect width="128" height="64" rx="6" fill="white"/>
<path d="M53.6747 19.9286L43.532 44.1345H36.9131L31.9185 24.8174C31.6169 23.6269 31.3523 23.1931 30.4317 22.701C28.4673 21.7605 26.3931 21.0691 24.2572 20.6428L24.4053 19.9391H35.056C35.7481 19.9416 36.4169 20.1897 36.943 20.6394C37.4692 21.089 37.8186 21.7109 37.9289 22.3941L40.5744 36.4045L47.0928 19.9286H53.6747ZM79.6003 36.2299C79.6267 29.8438 70.7697 29.4893 70.8279 26.6375C70.8279 25.7697 71.6745 24.8438 73.4734 24.6057C75.5916 24.4052 77.7248 24.7799 79.6479 25.6904L80.7484 20.5582C78.8741 19.8615 76.8909 19.5032 74.8913 19.5C68.701 19.5 64.3465 22.791 64.3095 27.5052C64.2725 30.9866 67.4206 32.9337 69.7909 34.0871C72.1612 35.2405 73.066 36.0341 73.0554 37.0923C73.0554 38.7166 71.1083 39.4309 69.3094 39.4627C67.0713 39.5088 64.8586 38.9824 62.8809 37.9336L61.7434 43.2245C63.9639 44.0822 66.3259 44.5148 68.7063 44.4996C75.2829 44.4996 79.5897 41.251 79.6056 36.2193M95.9492 44.124H101.743L96.6847 19.918H91.3673C90.7996 19.918 90.2448 20.0871 89.7736 20.4037C89.3025 20.7203 88.9363 21.1701 88.7218 21.6957L79.2828 44.1345H85.8541L87.161 40.5156H95.1926L95.9492 44.124ZM88.9652 35.558L92.2615 26.4681L94.1556 35.558H88.9652ZM62.6217 19.9286L57.4419 44.1345H51.1827L56.3625 19.9286H62.6217Z" fill="#1434CB"/>
</svg>

<svg xmlns="http://www.w3.org/2000/svg" width="128" height="64" fill="none"><rect width="128" height="64" fill="#fff" rx="6"/><path fill="#1434CB" d="M53.675 19.929 43.532 44.135h-6.619L31.92 24.817c-.302-1.19-.567-1.624-1.487-2.116a26.151 26.151 0 0 0-6.175-2.058l.148-.704h10.651a2.92 2.92 0 0 1 2.873 2.455l2.645 14.01 6.519-16.475h6.582Zm25.925 16.3c.027-6.385-8.83-6.74-8.772-9.591 0-.868.846-1.794 2.645-2.032 2.119-.2 4.252.174 6.175 1.084l1.1-5.132a16.888 16.888 0 0 0-5.857-1.058c-6.19 0-10.544 3.291-10.582 8.005-.037 3.482 3.112 5.429 5.482 6.582 2.37 1.153 3.275 1.947 3.264 3.005 0 1.625-1.947 2.339-3.746 2.37-2.238.047-4.45-.48-6.428-1.528l-1.138 5.29c2.22.858 4.583 1.29 6.963 1.276 6.577 0 10.884-3.249 10.9-8.28m16.343 7.904h5.794l-5.058-24.206h-5.318a2.858 2.858 0 0 0-2.645 1.778l-9.44 22.439h6.572l1.307-3.62h8.032l.756 3.609Zm-6.984-8.566 3.296-9.09 1.895 9.09h-5.19Zm-26.343-15.63-5.18 24.207h-6.26l5.18-24.206h6.26Z"/></svg>
